X: 1
T: Follow Me Up To Carlow
R: reel
M: 4/4
L: 1/8
K: Ador
(3ABA AG EF G2|AGAB cded|BA (3B^cd eaaf|(3gfe dB BAdB|
(3ABA AG EF G2|AGAB cded|BA (3B^cd eaaf|(3gfe dB BA A2||
egdg egd>c|BG G2 Bc d2|egdg eaaf|(3gfe dB BA A2|
agef gedB|(3cBA (3BAG EFGB|AGAB cdef|(3gfe dB BA A2||


Tune 1583	Setting 21592

